!!!!SEGMENT: pl-cz--iii-106--001-008_dankowski-adalbert--missa-e-agnus-dei.krn
!!!cenid: 18xx:759
!!!COM: Dankowski, Adalbert
!!!COM-rismID: pe30000793
!!!CDT: ~1760-~1836
!!!CNT: Polish
!!!OPR: Missa E
!!!OTL: Agnus Dei
!!!OMV: 008
!!!PDT:
!!!AGN: Sacred; Mass
!!!SMS-siglum: PL-CZ
!!!SMS-shelfmark: III-106
!!!SMS-shelfwork: 001-008 M
!!!SMS-variant:
!!!SMS-altvar:
!!!NIFC-rismSourceID: 300000111
!!!NIFC-rismChildID: 300000111
!!!NIFC-islandoraID: pl-cz:34215
!!!URL-pdf-islandora: https://repozytorium.nifc.pl/islandora/object/pl-cz%3A34215/datastream/PDF/view
!!!URL-scan: https://polish.musicsources.pl/pl/lokalizacje/galeria/rekopisy/6824/1 @EN{Scan on Polish Music Sources Website} @PL{Skany w portalu Dziedzictwo Muzyki Polskiej w otwartym dostępie}
!!!IIIF:
!!!ONB-nifc: UWAGA: części Mszy: Kyrie, Gloria, Patrem, Et resurrexit, Sanctus, Benedictus,
!!!AIN: 1 alto 1 bass 2 cornt 1 organ 1 soprn 1 tenor 2 violn
!!!key: D
**kern	**fba	**dynam	**kern	**dynam	**kern	**dynam	**kern	**text	**kern	**text	**kern	**text	**kern	**text	**kern	**kern
*part9	*part9	*part9	*part8	*part8	*part7	*part7	*part6	*part6	*part5	*part5	*part4	*part4	*part3	*part3	*part2	*part1
*staff9	*staff9	*	*staff8	*	*staff7	*	*staff6	*staff6	*staff5	*staff5	*staff4	*staff4	*staff3	*staff3	*staff2	*staff1
*	*	*	*group3	*	*group3	*	*group2	*	*group2	*	*group2	*	*group2	*	*group1	*group1
*I"Organo	*	*	*I"Violino Secondo	*	*I"Violino Primo	*	*I"Baſso	*	*I"Tenore	*	*I"Alto	*	*I"Canto	*	*I"Clarino Secondo ex D:	*I"Clarino Primo ex D:
*I'org	*	*	*I'vl 2	*	*I'vl 1	*	*I'B	*	*I'T	*	*I'A	*	*I'S	*	*I'clno 2 ex D	*I'clno 1 ex D
*Iorgan	*	*	*Ivioln	*	*Ivioln	*	*Ibass	*	*Itenor	*	*Ialto	*	*Isoprn	*	*Icornt	*Icornt
*ICklav	*	*	*ICstr	*	*ICstr	*	*ICvox	*	*ICvox	*	*ICvox	*	*ICvox	*	*ICbras	*ICbras
*IGcont	*	*	*IGacmp	*	*IGacmp	*	*IGcoro	*	*IGcoro	*	*IGcoro	*	*IGcoro	*	*IGacmp	*IGacmp
*clefF4	*	*	*clefG2	*	*clefG2	*	*clefF4	*	*clefC4	*	*clefC3	*	*clefC1	*	*clefG2	*clefG2
*	*	*	*	*	*	*	*	*	*	*	*	*	*	*	*ITrd-1c-2	*ITrd-1c-2
*k[f#c#]	*	*	*k[f#c#]	*	*k[f#c#]	*	*k[f#c#]	*	*k[f#c#]	*	*k[f#c#]	*	*k[f#c#]	*	*k[f#c#]	*k[f#c#]
*D:	*	*	*D:	*	*D:	*	*D:	*	*D:	*	*D:	*	*D:	*	*D:	*D:
*M2/4	*	*	*M2/4	*	*M2/4	*	*M2/4	*	*M2/4	*	*M2/4	*	*M2/4	*	*M2/4	*M2/4
=1	=1	=1	=1	=1	=1	=1	=1	=1	=1	=1	=1	=1	=1	=1	=1	=1
!LO:TX:a:i:t=Solo	!	!	!	!	!	!	!	!	!	!	!LO:TX:a:i:t=Solo	!	!LO:TX:b:t=7:color=grey	!	!	!
!LO:TX:a:Bi:t=andan&colon;	!	!	!LO:TX:a:Bi:t=andan&colon;	!LO:DY:a:t=pio	!LO:TX:a:Bi:t=andan	!LO:DY:a:t=pio&colon;	!LO:TX:a:Bi:t=andan&colon;	!	!LO:TX:a:Bi:t=andan&colon;	!	!LO:TX:a:Bi:t=andan	!	!LO:TX:a:Bi:t=andan&colon;	!	!LO:TX:a:Bi:t=andan&colon;	!LO:TX:a:Bi:t=andan&colon;
8D\L	.	.	8f#/L	p	4dd\	p	0r	.	0r	.	4d\	A-	0r	.	0r	0r
8D\	.	.	8f#/	.	.	.	.	.	.	.	.	.	.	.	.	.
8D\	.	.	8f#/	.	8aa\L	.	.	.	.	.	8a\	.	.	.	.	.
8D\J	.	.	8a/J	.	16gg\L	.	.	.	.	.	16g\LL	-gnus	.	.	.	.
.	.	.	.	.	16ff#\JJ	.	.	.	.	.	16f#\JJ	.	.	.	.	.
=2	=2	=2	=2	=2	=2	=2	=2	=2	=2	=2	=2	=2	=2	=2	=2	=2
!LO:TX:t=P:problem=mixed beam	!	!	!	!	!	!	!	!	!	!	!	!	!	!	!	!
8A\L	.	.	8cc#\L	.	8.ee\L	.	.	.	.	.	8.e\L	De-	.	.	.	.
8AA/J	.	.	8cc#\	.	.	.	.	.	.	.	.	.	.	.	.	.
.	.	.	.	.	32ff#\LL	.	.	.	.	.	32f#\LL	.	.	.	.	.
.	.	.	.	.	32gg\JJJ	.	.	.	.	.	32g\JJJ	.	.	.	.	.
8D\L	.	.	8dd\	.	8ff#\L	.	.	.	.	.	8f#\	-i	.	.	.	.
8F#\J	6	.	8dd\J	.	8aa\J	.	.	.	.	.	8a\	qui	.	.	.	.
=3	=3	=3	=3	=3	=3	=3	=3	=3	=3	=3	=3	=3	=3	=3	=3	=3
8G\L	6_ 3	.	8ee\L	.	8.bb\L	.	.	.	.	.	4b\	tol-	.	.	.	.
8G\	.	.	8ee\	.	.	.	.	.	.	.	.	.	.	.	.	.
.	.	.	.	.	32aa\LL	.	.	.	.	.	.	.	.	.	.	.
.	.	.	.	.	32bb\JJJ	.	.	.	.	.	.	.	.	.	.	.
8A\	x_ 3	.	8ee\	.	16ccc#\LL	.	.	.	.	.	16cc#\LL	-lis	.	.	.	.
.	.	.	.	.	16aa\	.	.	.	.	.	16a\JJ	.	.	.	.	.
8A\J	.	.	8ee\J	.	16bb\	.	.	.	.	.	16b\LL	pec-	.	.	.	.
.	.	.	.	.	16ccc#\JJ	.	.	.	.	.	16cc#\JJ	.	.	.	.	.
!	!	!	!	!	!	!	!	!	!	!	!LO:LB:g=original	!	!	!	!	!
=4	=4	=4	=4	=4	=4	=4	=4	=4	=4	=4	=4	=4	=4	=4	=4	=4
!LO:TX:t=P:problem=mixed beam	!	!	!LO:TX:t=P:problem=mixed beam	!	!	!	!	!	!	!	!	!	!	!	!	!
8D\L	x	.	8ff#\L	.	8ddd\L	.	.	.	.	.	8dd\	-ca-	.	.	.	.
8DD/J	.	.	8f#/J	.	8dd\J	.	.	.	.	.	8d\	-ta	.	.	.	.
4AA/	3	.	4cc#\	.	16r	.	.	.	.	.	16r	.	.	.	.	.
.	.	.	.	.	16aa\LL	.	.	.	.	.	16a\LL	qui	.	.	.	.
.	.	.	.	.	16bb\	.	.	.	.	.	16b\	.	.	.	.	.
.	.	.	.	.	16aa\JJ	.	.	.	.	.	16a\JJ	.	.	.	.	.
!	!	!	!	!	!LO:LB:g=original	!	!	!	!	!	!	!	!	!	!	!
=5	=5	=5	=5	=5	=5	=5	=5	=5	=5	=5	=5	=5	=5	=5	=5	=5
4BB/	6\ 3	.	4dd\	.	16aa\LL	.	0r	.	0r	.	16a\LL	tol	1r	.	0r	0r
.	.	.	.	.	16gg#X\J	.	.	.	.	.	16g#X\JJ	.	.	.	.	.
.	.	.	.	.	8gg#\J	.	.	.	.	.	8g#\	lis	.	.	.	.
4C#/	rn5 3	.	4ee\	.	16r	.	.	.	.	.	16r	.	.	.	.	.
*	*	*	*	*	*	*	*	*	*	*	*	*ij	*	*	*	*
.	.	.	.	.	16ggn\LL	.	.	.	.	.	16gn\LL	qui	.	.	.	.
.	.	.	.	.	16aa\	.	.	.	.	.	16a\	.	.	.	.	.
.	.	.	.	.	16gg\JJ	.	.	.	.	.	16g\JJ	.	.	.	.	.
=6	=6	=6	=6	=6	=6	=6	=6	=6	=6	=6	=6	=6	=6	=6	=6	=6
4D\	.	.	4a/	.	16gg\LL	.	.	.	.	.	16g\LL	tol-	.	.	.	.
.	.	.	.	.	16ff#\J	.	.	.	.	.	16f#\JJ	.	.	.	.	.
.	.	.	.	.	8ff#\J	.	.	.	.	.	8f#\	-lis	.	.	.	.
*	*	*	*	*	*	*	*	*	*	*	*	*Xij	*	*	*	*
4F#\	6	.	4a/	.	16r	.	.	.	.	.	16r	.	.	.	.	.
.	.	.	.	.	16dd\LL	.	.	.	.	.	16d\LL	pec-	.	.	.	.
.	.	.	.	.	16ff#\	.	.	.	.	.	16f#\	.	.	.	.	.
.	.	.	.	.	16aa\JJ	.	.	.	.	.	16a\JJ	.	.	.	.	.
!LO:LB:g=original	!	!	!LO:LB:g=original	!	!	!	!	!	!	!	!	!	!	!	!	!
=7	=7	=7	=7	=7	=7	=7	=7	=7	=7	=7	=7	=7	=7	=7	=7	=7
8G\L	6_	.	8ee\L	.	16aa\LL	.	.	.	.	.	16a\LL	-ca-	2r	.	.	.
.	.	.	.	.	16gg\JJ	.	.	.	.	.	16g\JJ	.	.	.	.	.
8G\	.	.	8ee\	.	4gg\	.	.	.	.	.	4g\	.	.	.	.	.
8G\	.	.	8ee\	.	.	.	.	.	.	.	.	.	.	.	.	.
8G#X\J	5	.	8dd\J	.	8ff#\	.	.	.	.	.	8f#\	-ta	.	.	.	.
!	!	!	!	!	!	!	!	!	!	!	!LO:LB:g=original	!	!	!	!	!
=8	=8	=8	=8	=8	=8	=8	=8	=8	=8	=8	=8	=8	=8	=8	=8	=8
!LO:TX:t=P:problem=mixed beam	!	!	!	!	!	!	!	!	!	!	!	!	!LO:TX:a:i:t=Solo:rj	!	!	!
8A\L	4	.	8dd\L	.	8ff#\L	.	.	.	.	.	8f#\	mun-	4r	.	.	.
8AA/J	3	.	8cc#\J	.	8ee\J	.	.	.	.	.	8e\	-di	.	.	.	.
!LO:TX:a:i:t=tutti	!	!	!	!	!	!LO:DY:a:t=for&colon;	!	!	!	!	!	!	!	!	!	!
4r	.	.	4r	.	16ee\LL	f	.	.	.	.	4r	.	8ee\	mi-	.	.
.	.	.	.	.	16ee\	.	.	.	.	.	.	.	.	.	.	.
.	.	.	.	.	16ee\	.	.	.	.	.	.	.	8ee\	-ſe-	.	.
.	.	.	.	.	16ee\JJ	.	.	.	.	.	.	.	.	.	.	.
=9	=9	=9	=9	=9	=9	=9	=9	=9	=9	=9	=9	=9	=9	=9	=9	=9
*	*	*	*	*	*tremolo	*	*	*	*	*	*	*	*2\right	*	*2\right	*2\right
8D\L	r#4 2	.	8g#X\L	f	16ee\LL	.	8D\L	mi-	8B\L	mi-	8g#X\L	mi-	2ee\	-re-	2ee\	2ee\
.	.	.	.	.	16ee\	.	.	.	.	.	.	.	.	.	.	.
8C#\	6	.	8a\	.	16ee\	.	8C#\J	.	8A\J	.	8a\J	.	.	.	.	.
.	.	.	.	.	16ee\JJ	.	.	.	.	.	.	.	.	.	.	.
8G#X\	6 5	.	8dd\	.	16ee\LL	.	8G#X\L	-ſe-	8B\L	-ſe-	8dd\L	-ſe-	.	.	.	.
.	.	.	.	.	16ee\	.	.	.	.	.	.	.	.	.	.	.
8A\J	.	.	8cc#\J	.	16ee\	.	8A\J	.	8A\J	.	8cc#\J	.	.	.	.	.
.	.	.	.	.	16ee\JJ	.	.	.	.	.	.	.	.	.	.	.
*	*	*	*	*	*Xtremolo	*	*	*	*	*	*	*	*	*	*	*
!	!	!	!	!	!LO:LB:g=original	!	!	!	!	!	!	!	!	!	!	!
=10	=10	=10	=10	=10	=10	=10	=10	=10	=10	=10	=10	=10	=10	=10	=10	=10
8D\L	r#4 2	.	8g#X\L	.	16ee\LL	.	8D\L	-re-	8B\L	-re-	8g#X\L	-re-	2ee\	.	2ee\	2ee\
.	.	.	.	.	16ee\	.	.	.	.	.	.	.	.	.	.	.
8C#\	6	.	8a\	.	16ee\	.	8C#\J	.	8A\J	.	8a\J	.	.	.	.	.
.	.	.	.	.	16ee\JJ	.	.	.	.	.	.	.	.	.	.	.
*	*	*	*	*	*tremolo	*	*	*	*	*	*	*	*	*	*	*
8G#X\	6 5	.	8dd\	.	16ee\LL	.	8G#X\L	-re	8B\L	-re	8dd\L	-re	.	.	.	.
.	.	.	.	.	16ee\	.	.	.	.	.	.	.	.	.	.	.
8A\J	.	.	8cc#\J	.	16ee\	.	8A\J	.	8A\J	.	8cc#\J	.	.	.	.	.
.	.	.	.	.	16ee\JJ	.	.	.	.	.	.	.	.	.	.	.
=11	=11	=11	=11	=11	=11	=11	=11	=11	=11	=11	=11	=11	=11	=11	=11	=11
*	*	*	*	*	*	*	*	*ij	*	*ij	*	*ij	*	*	*	*
8D\L	r#4 2	.	8g#X\L	.	16ee\LL	.	8D\L	mi-	8B\L	mi-	8g#X\L	mi-	2ee\	.	2ee\	2ee\
.	.	.	.	.	16ee\	.	.	.	.	.	.	.	.	.	.	.
8C#\	6	.	8a\	.	16ee\	.	8C#\J	.	8A\J	.	8a\J	.	.	.	.	.
.	.	.	.	.	16ee\JJ	.	.	.	.	.	.	.	.	.	.	.
8G#X\	6 5	.	8dd\	.	16ee\LL	.	4G#X\	-ſe-	4B\	-ſe-	4dd\	-ſe-	.	.	.	.
.	.	.	.	.	16ee\	.	.	.	.	.	.	.	.	.	.	.
8G#\J	.	.	8dd\J	.	16ee\	.	.	.	.	.	.	.	.	.	.	.
.	.	.	.	.	16ee\JJ	.	.	.	.	.	.	.	.	.	.	.
*	*	*	*	*	*Xtremolo	*	*	*	*	*	*	*	*	*	*	*
=12	=12	=12	=12	=12	=12	=12	=12	=12	=12	=12	=12	=12	=12	=12	=12	=12
8A\L	.	.	8cc#\L	.	8dd\	.	8A\	-re-	8A\	-re-	8cc#\	-re-	8ee\	.	8a\L	8ee\
8F#\	.	.	8cc#\	.	4aa\	.	8F#\	-re	8f#\	-re	8a\	-re	8cc#\	-re	8ff#\	4aa\
*	*	*	*	*	*	*	*	*Xij	*	*Xij	*	*Xij	*	*	*	*
8D\	6 5	.	8b\	.	.	.	8D\L	no-	8f#\L	no-	8a\L	no-	4b\	no-	8ff#\	.
8E\J	#	.	8b\J	.	8gg#X\	.	8E\J	.	8e\J	.	8g#X\J	.	.	.	8ee\J	8gg#X\
!	!	!	!	!	!	!	!LO:LB:g=original	!	!LO:LB:g=original	!	!LO:PB:g=original	!	!LO:LB:g=original	!	!	!
=13	=13	=13	=13	=13	=13	=13	=13	=13	=13	=13	=13	=13	=13	=13	=13	=13
!	!	!LO:DY:a:t=pio	!	!	!	!	!	!	!	!	!	!	!	!	!	!
4A\	.	p	(16a/LL	.	(16aa\LL	.	4AA/	-bis	4e\	-bis	4a\	-bis	4cc#\	-bis	4a/	4aa\
.	.	.	16e/)	.	16ee\)	.	.	.	.	.	.	.	.	.	.	.
.	.	.	16e|/	.	16ee|\	.	.	.	.	.	.	.	.	.	.	.
.	.	.	16e|/JJ	.	16ee|\JJ	.	.	.	.	.	.	.	.	.	.	.
!	!	!	!LO:LB:g=original	!	!	!	!	!	!	!	!	!	!	!	!	!
8r	.	.	(16e/LL	.	(16ee\LL	.	4r	.	4r	.	4r	.	4r	.	4r	4r
.	.	.	16d/)	.	16dd\)	.	.	.	.	.	.	.	.	.	.	.
8G#X\	.	.	16d|/	.	16dd|\	.	.	.	.	.	.	.	.	.	.	.
.	.	.	16d|/JJ	.	16dd|\JJ	.	.	.	.	.	.	.	.	.	.	.
!LO:LB:g=original	!	!	!	!	!	!	!	!	!	!	!	!	!	!	!	!
=14	=14	=14	=14	=14	=14	=14	=14	=14	=14	=14	=14	=14	=14	=14	=14	=14
4A\	.	.	(16d/LL	.	(16dd\LL	.	0r	.	0r	.	0r	.	1r	.	1r	1r
.	.	.	16c#/)	.	16cc#\)	.	.	.	.	.	.	.	.	.	.	.
.	.	.	16c#|/	.	16cc#|\	.	.	.	.	.	.	.	.	.	.	.
.	.	.	16c#|/JJ	.	16cc#|\JJ	.	.	.	.	.	.	.	.	.	.	.
8r	.	.	(16c#/LL	.	(16cc#\LL	.	.	.	.	.	.	.	.	.	.	.
.	.	.	16B/)	.	16b\)	.	.	.	.	.	.	.	.	.	.	.
8D\	6 5	.	(16B/	.	(16b\	.	.	.	.	.	.	.	.	.	.	.
.	.	.	16A/JJ)	.	16a\JJ)	.	.	.	.	.	.	.	.	.	.	.
!	!	!	!	!	!LO:LB:g=original	!	!	!	!	!	!	!	!	!	!	!
=15	=15	=15	=15	=15	=15	=15	=15	=15	=15	=15	=15	=15	=15	=15	=15	=15
!LO:TX:t=P:problem=mixed beam	!	!	!	!	!	!	!	!	!	!	!	!	!	!	!	!
8E\L	.	.	(16A/LL	.	16a\LL	.	.	.	.	.	.	.	.	.	.	.
.	.	.	16G#X/)	.	16g#X\	.	.	.	.	.	.	.	.	.	.	.
8G#X\	6 5	.	(16B/	.	16b\	.	.	.	.	.	.	.	.	.	.	.
.	.	.	16d/JJ)	.	16dd\JJ	.	.	.	.	.	.	.	.	.	.	.
8A\	.	.	(16d/LL	.	16dd\LL	.	.	.	.	.	.	.	.	.	.	.
.	.	.	16c#/)	.	16cc#\	.	.	.	.	.	.	.	.	.	.	.
8C#/J	6	.	(16a/	.	16aa\	.	.	.	.	.	.	.	.	.	.	.
.	.	.	16e/JJ)	.	16ee\JJ	.	.	.	.	.	.	.	.	.	.	.
=16	=16	=16	=16	=16	=16	=16	=16	=16	=16	=16	=16	=16	=16	=16	=16	=16
!LO:TX:t=P:problem=mixed beam	!	!	!	!	!	!	!	!	!	!	!	!	!	!	!	!
8D\L	6_	.	(16e#X/LL	.	16ee#X\LL	.	.	.	.	.	.	.	2r	.	8r	8r
.	.	.	16f#/)	.	16ff#\	.	.	.	.	.	.	.	.	.	.	.
8D\	.	.	(16f#/	.	16dd\	.	.	.	.	.	.	.	.	.	8dd\L	8ff#\L
.	.	.	16d/JJ)	.	16b\JJ	.	.	.	.	.	.	.	.	.	.	.
8E\	4	.	(16d/LL	.	16b/LL	.	.	.	.	.	.	.	.	.	8ee\	8ee\
.	.	.	16c#/)	.	16a/	.	.	.	.	.	.	.	.	.	.	.
8EE/J	#	.	(16c#/	.	16a/	.	.	.	.	.	.	.	.	.	8ee\J	8ee\J
.	.	.	16B/JJ)	.	16g#X/JJ	.	.	.	.	.	.	.	.	.	.	.
!	!	!	!	!	!	!	!	!	!	!	!	!	!	!	!	!LO:LB:g=original
=17	=17	=17	=17	=17	=17	=17	=17	=17	=17	=17	=17	=17	=17	=17	=17	=17
!	!	!	!	!LO:DY:a	!	!LO:DY:a	!	!	!	!	!	!	!LO:TX:a:i:t=Solo:rj	!	!	!
8AA/L	.	.	8c#/L	p	4a/	p	.	.	.	.	.	.	(4a\	A-	4a/	4ee\
8AA/	.	.	8c#/	.	.	.	.	.	.	.	.	.	.	.	.	.
8AA/	.	.	8c#/	.	8ee\L	.	.	.	.	.	.	.	8ee\)	.	4r	4r
8AA/J	.	.	8e/J	.	16dd\L	.	.	.	.	.	.	.	16dd\LL	-gnus	.	.
.	.	.	.	.	16cc#\JJ	.	.	.	.	.	.	.	16cc#\JJ	.	.	.
!	!	!	!	!	!	!	!	!	!	!	!	!	!	!	!LO:LB:g=original	!
=18	=18	=18	=18	=18	=18	=18	=18	=18	=18	=18	=18	=18	=18	=18	=18	=18
!LO:TX:t=P:problem=mixed beam	!	!	!	!	!	!	!	!	!	!	!	!	!	!	!	!
8E\L	#	.	8.g#X/L	.	8.b\L	.	0r	.	0r	.	0r	.	8.b\L	De-	0r	0r
8EE/J	.	.	.	.	.	.	.	.	.	.	.	.	.	.	.	.
.	.	.	32a/LL	.	32cc#\LL	.	.	.	.	.	.	.	32cc#\LL	.	.	.
.	.	.	32b/JJJ	.	32dd\JJJ	.	.	.	.	.	.	.	32dd\JJJ	.	.	.
!	!	!	!LO:LB:g=original	!	!	!	!	!	!	!	!	!	!	!	!	!
8AA/L	.	.	8a/L	.	8cc#\L	.	.	.	.	.	.	.	8cc#\	-i	.	.
8C#/J	6	.	8a/J	.	8ee\J	.	.	.	.	.	.	.	8ee\	qui	.	.
=19	=19	=19	=19	=19	=19	=19	=19	=19	=19	=19	=19	=19	=19	=19	=19	=19
8D\L	6_ 3_	.	8b\L	.	8.ff#\L	.	.	.	.	.	.	.	4ff#\	tol-	.	.
8D\	.	.	8b\	.	.	.	.	.	.	.	.	.	.	.	.	.
.	.	.	.	.	32ee\LL	.	.	.	.	.	.	.	.	.	.	.
.	.	.	.	.	32ff#\JJJ	.	.	.	.	.	.	.	.	.	.	.
8E\	x_ #_	.	8b\	.	16gg#X\LL	.	.	.	.	.	.	.	16gg#X\LL	-lis	.	.
.	.	.	.	.	16ee\	.	.	.	.	.	.	.	16ee\JJ	.	.	.
8E\J	.	.	8b\J	.	16ff#\	.	.	.	.	.	.	.	16ff#\LL	pec-	.	.
.	.	.	.	.	16gg#\JJ	.	.	.	.	.	.	.	16gg#\JJ	.	.	.
!	!	!	!	!	!LO:LB:g=original	!	!	!	!	!	!	!	!LO:LB:g=original	!	!	!
=20	=20	=20	=20	=20	=20	=20	=20	=20	=20	=20	=20	=20	=20	=20	=20	=20
!LO:TX:t=P:problem=mixed beam	!	!	!	!	!	!	!	!	!	!	!	!	!	!	!	!
8A\L	x	.	8cc#\L	.	16aa\LL	.	.	.	.	.	.	.	16aa\LL	-ca-	.	.
.	.	.	.	.	16ee\J	.	.	.	.	.	.	.	16ee\JJ	.	.	.
8AA/J	.	.	8cc#\J	.	8ee\J	.	.	.	.	.	.	.	8ee\	-ta	.	.
4E\	#	.	4g#X/	.	16r	.	.	.	.	.	.	.	16r	.	.	.
.	.	.	.	.	16ee\LL	.	.	.	.	.	.	.	16ee\LL	qui	.	.
.	.	.	.	.	16ff#\	.	.	.	.	.	.	.	16ff#\	.	.	.
.	.	.	.	.	16ee\JJ	.	.	.	.	.	.	.	16ee\JJ	.	.	.
!LO:LB:g=original	!	!	!	!	!	!	!	!	!	!	!	!	!	!	!	!
=21	=21	=21	=21	=21	=21	=21	=21	=21	=21	=21	=21	=21	=21	=21	=21	=21
4F#\	6\ 3	.	4a/	.	16ee\LL	.	.	.	.	.	.	.	16ee\LL	tol-	.	.
.	.	.	.	.	16dd#X\J	.	.	.	.	.	.	.	16dd#X\JJ	.	.	.
.	.	.	.	.	8dd#\J	.	.	.	.	.	.	.	8cc#\	-lis	.	.
4G#X\	rn5 3	.	4b/	.	16r	.	.	.	.	.	.	.	16r	.	.	.
*	*	*	*	*	*	*	*	*	*	*	*	*	*	*ij	*	*
.	.	.	.	.	16ddn\LL	.	.	.	.	.	.	.	16ddn\LL	qui	.	.
.	.	.	.	.	16ee\	.	.	.	.	.	.	.	16ee\	.	.	.
.	.	.	.	.	16dd\JJ	.	.	.	.	.	.	.	16dd\JJ	.	.	.
=22	=22	=22	=22	=22	=22	=22	=22	=22	=22	=22	=22	=22	=22	=22	=22	=22
4A\	3	.	4e/	.	16dd\LL	.	1r	.	1r	.	1r	.	16dd\LL	tol-	1r	1r
.	.	.	.	.	16cc#\J	.	.	.	.	.	.	.	16cc#\JJ	.	.	.
.	.	.	.	.	8cc#\J	.	.	.	.	.	.	.	8cc#\	-lis	.	.
*	*	*	*	*	*	*	*	*	*	*	*	*	*	*Xij	*	*
4A#X\	6 5	.	4f#/	.	16r	.	.	.	.	.	.	.	16r	.	.	.
.	.	.	.	.	16ee\LL	.	.	.	.	.	.	.	16ee\LL	pec-	.	.
.	.	.	.	.	16ff#\	.	.	.	.	.	.	.	16ff#\	.	.	.
.	.	.	.	.	16ee\JJ	.	.	.	.	.	.	.	16ee\JJ	.	.	.
=23	=23	=23	=23	=23	=23	=23	=23	=23	=23	=23	=23	=23	=23	=23	=23	=23
4B\	3	.	8f#/L	.	16ee\LL	.	.	.	.	.	.	.	16ee\LL	-ca-	.	.
.	.	.	.	.	16dd\	.	.	.	.	.	.	.	16dd\	.	.	.
.	.	.	8f#/	.	16cc#\	.	.	.	.	.	.	.	16cc#\	.	.	.
.	.	.	.	.	16dd\JJ	.	.	.	.	.	.	.	16dd\JJ	.	.	.
!	!	!	!	!	!	!	!	!	!	!	!	!	!LO:LB:g=original	!	!	!
8E\L	6	.	8e/	.	16dd\LL	.	.	.	.	.	.	.	16dd\LL	.	.	.
.	.	.	.	.	16cc#\	.	.	.	.	.	.	.	16cc#\JJ	.	.	.
8E#X\J	5	.	8d/J	.	16cc#\	.	.	.	.	.	.	.	16cc#\LL	-ta	.	.
.	.	.	.	.	16b\JJ	.	.	.	.	.	.	.	16b\JJ	.	.	.
!	!	!	!	!	!LO:LB:g=original	!	!	!	!	!	!	!	!	!	!	!
=24	=24	=24	=24	=24	=24	=24	=24	=24	=24	=24	=24	=24	=24	=24	=24	=24
!LO:TX:t=P:problem=mixed beam	!	!	!	!	!	!	!	!	!	!	!	!	!	!	!	!
8F#\L	4	.	8d/L	.	8b\L	.	2r	.	2r	.	4r	.	8b\	mun-	2r	2r
8FF#/J	#	.	8c#/J	.	8a#X\J	.	.	.	.	.	.	.	8a#X\	-di	.	.
!LO:TX:a:i:t=tutt	!	!	!	!	!	!LO:DY:a	!	!	!	!	!	!	!	!	!	!
4r	.	.	4r	.	16ff#\LL	f	.	.	.	.	8f#\	mi-	4r	.	.	.
.	.	.	.	.	16ff#\	.	.	.	.	.	.	.	.	.	.	.
.	.	.	.	.	16ff#\	.	.	.	.	.	8f#\	-ſe-	.	.	.	.
.	.	.	.	.	16ff#\JJ	.	.	.	.	.	.	.	.	.	.	.
!	!	!	!LO:PB:g=original	!	!	!	!	!	!	!	!	!	!	!	!	!
=25	=25	=25	=25	=25	=25	=25	=25	=25	=25	=25	=25	=25	=25	=25	=25	=25
*	*	*	*	*	*tremolo	*	*	*	*	*	*2\right	*	*	*	*	*
!	!	!	!	!LO:DY:a:t=for&colon;	!	!	!	!	!	!	!	!	!	!	!	!
8En\L	r#4 2	.	8a#X\L	f	16ff#\LL	.	8E\L	mi-	8c#\L	mi-	2f#\	-re-	8a#X\L	mi-	2f#/	2ff#\
.	.	.	.	.	16ff#\	.	.	.	.	.	.	.	.	.	.	.
8D\	6	.	8b\	.	16ff#\	.	8D\J	.	8d\J	.	.	.	8b\J	.	.	.
.	.	.	.	.	16ff#\JJ	.	.	.	.	.	.	.	.	.	.	.
8A#X\	6 5	.	8ee\	.	16ff#\LL	.	8A#X\L	-ſe-	8c#\L	-ſe-	.	.	8ee\L	-ſe-	.	.
.	.	.	.	.	16ff#\	.	.	.	.	.	.	.	.	.	.	.
8B\J	.	.	8dd\J	.	16ff#\	.	8B\J	.	8d\J	.	.	.	8dd\J	.	.	.
.	.	.	.	.	16ff#\JJ	.	.	.	.	.	.	.	.	.	.	.
=26	=26	=26	=26	=26	=26	=26	=26	=26	=26	=26	=26	=26	=26	=26	=26	=26
8E\L	r#4 2	.	8a#X\L	.	16ff#\LL	.	8E\L	-re-	8c#\L	-re-	2f#\	.	8a#X\L	-re-	2f#/	2ff#\
.	.	.	.	.	16ff#\	.	.	.	.	.	.	.	.	.	.	.
8D\	6	.	8b\	.	16ff#\	.	8D\J	.	8d\J	.	.	.	8b\J	.	.	.
.	.	.	.	.	16ff#\JJ	.	.	.	.	.	.	.	.	.	.	.
8A#X\	6 5	.	8ee\	.	16ff#\LL	.	8A#X\L	-re	8c#\L	-re	.	.	8ee\L	-re	.	.
.	.	.	.	.	16ff#\	.	.	.	.	.	.	.	.	.	.	.
8B\J	.	.	8dd\J	.	16ff#\	.	8B\J	.	8d\J	.	.	.	8dd\J	.	.	.
.	.	.	.	.	16ff#\JJ	.	.	.	.	.	.	.	.	.	.	.
=27	=27	=27	=27	=27	=27	=27	=27	=27	=27	=27	=27	=27	=27	=27	=27	=27
*	*	*	*	*	*	*	*	*ij	*	*ij	*	*	*	*ij	*	*
8E\L	r#4 2	.	8a#X\L	.	16ff#\LL	.	8E\L	mi-	8c#\L	mi-	2f#\	.	8a#X\L	mi-	2f#/	2ff#\
.	.	.	.	.	16ff#\	.	.	.	.	.	.	.	.	.	.	.
8D\	6	.	8b\	.	16ff#\	.	8D\J	.	8d\J	.	.	.	8b\J	.	.	.
.	.	.	.	.	16ff#\JJ	.	.	.	.	.	.	.	.	.	.	.
8A#X\	6 5	.	8ee\	.	16ff#\LL	.	4A#X\	-ſe-	4c#\	-ſe-	.	.	4ee\	-ſe-	.	.
.	.	.	.	.	16ff#\	.	.	.	.	.	.	.	.	.	.	.
8A#\J	.	.	8ee\J	.	16ff#\	.	.	.	.	.	.	.	.	.	.	.
.	.	.	.	.	16ff#\JJ	.	.	.	.	.	.	.	.	.	.	.
*	*	*	*	*	*Xtremolo	*	*	*	*	*	*	*	*	*	*	*
!LO:LB:g=original	!	!	!	!	!	!	!	!	!	!	!	!	!	!	!	!
=28	=28	=28	=28	=28	=28	=28	=28	=28	=28	=28	=28	=28	=28	=28	=28	=28
8B\L	.	.	8dd\L	.	8ff#\	.	8B\	-re-	8d\	-re-	8f#\	.	8dd\	-re-	8dd\L	8ff#\
8G\	6 5	.	8dd\J	.	4bb\	.	8G\	-re	8G/	-re	8b\	-re	8dd\	-re	8dd\	4gg\
*	*	*	*	*	*	*	*	*Xij	*	*Xij	*	*	*	*Xij	*	*
!	!	!	!	!	!	!	!	!	!	!	!	!	!LO:LB:g=original	!	!	!
8E\	.	.	4cc#\	.	.	.	8E\L	no-	8G/L	no-	8b\L	no-	4cc#\	no-	8ee\	.
8F#\J	#	.	.	.	8aa#X\	.	8F#\J	.	8F#/J	.	8a#X\J	.	.	.	8ff#\J	8ff#\
!	!	!	!	!	!	!	!LO:LB:g=original	!	!LO:LB:g=original	!	!LO:LB:g=original	!	!	!	!	!
=29	=29	=29	=29	=29	=29	=29	=29	=29	=29	=29	=29	=29	=29	=29	=29	=29
!LO:TX:a:i:t=Solo&colon;:rj	!	!	!	!	!	!	!	!	!	!	!	!	!	!	!	!
4BB/	.	.	8b\L	.	8bb\L	.	4BB/	-bis	4F#/	-bis	4b\	-bis	4b\	-bis	4f#/	4ff#\
.	.	.	16b\L	.	16bb\L	.	.	.	.	.	.	.	.	.	.	.
.	.	.	16ccn\JJ	.	16cccn\JJ	.	.	.	.	.	.	.	.	.	.	.
8r	.	.	16cc\LL	.	16ccc\LL	.	4r	.	4r	.	4r	.	4r	.	4r	4r
.	.	.	16b\	.	16bb\	.	.	.	.	.	.	.	.	.	.	.
8D#X\	6 rn5	.	16b\	.	16bb\	.	.	.	.	.	.	.	.	.	.	.
.	.	.	16an\JJ	.	16aan\JJ	.	.	.	.	.	.	.	.	.	.	.
!	!	!	!	!	!LO:LB:g=original	!	!	!	!	!	!	!	!	!	!	!
=30	=30	=30	=30	=30	=30	=30	=30	=30	=30	=30	=30	=30	=30	=30	=30	=30
4E\	3	.	(16a/LL	.	16aa\LL	.	1r	.	1r	.	1r	.	1r	.	2r	2r
.	.	.	16g/)	.	16gg\	.	.	.	.	.	.	.	.	.	.	.
.	.	.	(16g/	.	16gg\	.	.	.	.	.	.	.	.	.	.	.
.	.	.	16b/JJ)	.	16bb\JJ	.	.	.	.	.	.	.	.	.	.	.
!	!	!	!LO:LB:g=original	!	!	!	!	!	!	!	!	!	!	!	!	!
8r	.	.	(16b/LL	.	16bb\LL	.	.	.	.	.	.	.	.	.	.	.
.	.	.	16a/)	.	16aa\	.	.	.	.	.	.	.	.	.	.	.
8C#/	6 5	.	(16a/	.	16aa\	.	.	.	.	.	.	.	.	.	.	.
.	.	.	16g/JJ)	.	16gg\JJ	.	.	.	.	.	.	.	.	.	.	.
=31	=31	=31	=31	=31	=31	=31	=31	=31	=31	=31	=31	=31	=31	=31	=31	=31
!	!	!	!LO:TX:t=P:problem=mixed beam	!	!	!	!	!	!	!	!	!	!	!	!	!
4D\	.	.	(16g/LL	.	16gg\LL	.	.	.	.	.	.	.	.	.	8r	8r
.	.	.	16f#/)	.	16ff#\	.	.	.	.	.	.	.	.	.	.	.
.	.	.	16f#/	.	16ff#\	.	.	.	.	.	.	.	.	.	8ff#\L	8aa\L
.	.	.	16ff#\JJ	.	16aa\JJ	.	.	.	.	.	.	.	.	.	.	.
8G\L	6	.	(16ff#\LL	.	16aa\LL	.	.	.	.	.	.	.	.	.	8ee\	8gg\
.	.	.	16ee\)	.	16gg\	.	.	.	.	.	.	.	.	.	.	.
8G#X\J	5	.	(16ee\	.	16gg\	.	.	.	.	.	.	.	.	.	8dd\J	8ff#\J
.	.	.	16dd\JJ)	.	16ff#\JJ	.	.	.	.	.	.	.	.	.	.	.
!	!	!	!	!	!	!	!	!	!	!	!	!	!	!	!	!LO:LB:g=original
=32	=32	=32	=32	=32	=32	=32	=32	=32	=32	=32	=32	=32	=32	=32	=32	=32
!LO:TX:t=P:problem=mixed beam	!	!	!	!	!	!	!	!	!	!	!	!	!	!	!	!
8A\L	4	.	8dd\L	.	8ff#\L	.	2r	.	2r	.	2r	.	2r	.	8dd\L	8ff#\L
8AA/J	3	.	8cc#\J	.	8ee\J	.	.	.	.	.	.	.	.	.	8a\J	8ee\J
16A|\LL	.	.	4r	.	4r	.	.	.	.	.	.	.	.	.	4r	4r
16Gn|\	.	.	.	.	.	.	.	.	.	.	.	.	.	.	.	.
16F#|\	.	.	.	.	.	.	.	.	.	.	.	.	.	.	.	.
!LO:TX:a:i:t=tutti	!	!	!	!	!	!	!	!	!	!	!	!	!	!	!	!
16E|\JJ	.	.	.	.	.	.	.	.	.	.	.	.	.	.	.	.
!	!	!	!	!	!	!	!	!	!	!	!	!	!	!	!LO:LB:g=original	!
=33	=33	=33	=33	=33	=33	=33	=33	=33	=33	=33	=33	=33	=33	=33	=33	=33
8D\L	.	.	8f#/L	.	4dd\	.	4D\	A-	4A\	A-	(4d\	A-	4.ff#\	A-	4dd\	4ff#\
8D\	.	.	8f#/	.	.	.	.	.	.	.	.	.	.	.	.	.
8D\	.	.	8f#/	.	8aa\L	.	4D\	-gnus	4A\	-gnus	8a\)	.	.	.	4dd\	4ff#\
8D\J	.	.	8a/J	.	16gg\L	.	.	.	.	.	16g\LL	-gnus	16ee\LL	-gnus	.	.
.	.	.	.	.	16ff#\JJ	.	.	.	.	.	16f#\JJ	.	16dd\JJ	.	.	.
!LO:LB:g=original	!	!	!	!	!	!	!	!	!	!	!	!	!	!	!	!
=34	=34	=34	=34	=34	=34	=34	=34	=34	=34	=34	=34	=34	=34	=34	=34	=34
!LO:TX:t=P:problem=mixed beam	!	!	!	!	!	!	!	!	!	!	!	!	!	!	!	!
8A\L	.	.	8.cc#\L	.	8.ee\L	.	4A\	De-	4A\	de-	8.e\L	De-	8.cc#\L	de-	4a/	4ee\
8AA/J	.	.	.	.	.	.	.	.	.	.	.	.	.	.	.	.
.	.	.	32cc#\LL	.	32ff#\LL	.	.	.	.	.	32f#\LL	.	32dd\LL	.	.	.
.	.	.	32ee\JJJ	.	32gg\JJJ	.	.	.	.	.	32g\JJJ	.	32ee\JJJ	.	.	.
8D\L	.	.	8dd\L	.	8ff#\L	.	8D\	-i	8A\	-i	8f#\	-i	8dd\	-i	4dd\	4ff#\
8F#\J	6	.	8dd\J	.	8aa\J	.	8F#\	qui	8A\	qui	8a\	qui	8dd\	qui	.	.
!	!	!	!	!	!LO:LB:g=original	!	!	!	!	!	!	!	!	!	!	!
=35	=35	=35	=35	=35	=35	=35	=35	=35	=35	=35	=35	=35	=35	=35	=35	=35
8G\L	6_ 3	.	8ee\L	.	8.bb\L	.	4G\	tol-	4B\	tol-	4b\	tol-	4ee\	tol-	4dd\	2ee\
8G\	.	.	8ee\	.	.	.	.	.	.	.	.	.	.	.	.	.
.	.	.	.	.	32aa\LL	.	.	.	.	.	.	.	.	.	.	.
.	.	.	.	.	32bb\JJJ	.	.	.	.	.	.	.	.	.	.	.
8A\	x_ 3	.	8ee\	.	16ccc#\LL	.	8A\	-lis	8A\	-lis	8cc#\	-lis	8ee\	-lis	4a/	.
.	.	.	.	.	16aa\	.	.	.	.	.	.	.	.	.	.	.
8A\J	.	.	8ee\J	.	16bb\	.	8A\	pec-	8A\	pec-	8cc#\	pec-	8ee\	pec-	.	.
.	.	.	.	.	16ccc#\JJ	.	.	.	.	.	.	.	.	.	.	.
!	!	!	!LO:LB:g=original	!	!	!	!	!	!	!	!LO:LB:g=original	!	!LO:LB:g=original	!	!	!
=36	=36	=36	=36	=36	=36	=36	=36	=36	=36	=36	=36	=36	=36	=36	=36	=36
!LO:TX:t=P:problem=mixed beam	!	!	!	!	!	!	!	!	!	!	!	!	!	!	!	!
8D\L	x	.	8ff#\L	.	16ddd\LL	.	8d\	-ca-	8A\	-ca-	16dd\LL	-ca-	8ff#\	-ca-	8f#/L	8dd\L
.	.	.	.	.	16aa\J	.	.	.	.	.	16a\JJ	.	.	.	.	.
8DD/J	.	.	8ff#\	.	8aa\J	.	8D\	-ta	8A\	-ta	8a\	-ta	8ff#\	-ta	8f#/J	8dd\J
4AA/	3	.	8cc#\	.	16r	.	4A\	qui	4e\	qui	4a\	qui	4cc#\	qui	4r	4r
.	.	.	.	.	16aa\LL	.	.	.	.	.	.	.	.	.	.	.
.	.	.	8cc#\J	.	16bb\	.	.	.	.	.	.	.	.	.	.	.
.	.	.	.	.	16aa\JJ	.	.	.	.	.	.	.	.	.	.	.
!	!	!	!	!	!	!	!LO:LB:g=original	!	!LO:LB:g=original	!	!	!	!	!	!	!
=37	=37	=37	=37	=37	=37	=37	=37	=37	=37	=37	=37	=37	=37	=37	=37	=37
4BB/	6\ 3	.	8dd\L	.	16aa\LL	.	4B\	tol-	4e\	tol-	4g#X\	tol-	4dd\	tol-	2r	2r
.	.	.	.	.	16gg#X\J	.	.	.	.	.	.	.	.	.	.	.
.	.	.	8dd\	.	8gg#\J	.	.	.	.	.	.	.	.	.	.	.
4C#/	rn5 3	.	8ee\	.	16r	.	4c#\	.	8e\	-lis	8gn\	-lis	8ee\	-lis	.	.
.	.	.	.	.	16ggn\LL	.	.	.	.	.	.	.	.	.	.	.
*	*	*	*	*	*	*	*	*	*	*	*	*ij	*	*ij	*	*
.	.	.	8ee\J	.	16aa\	.	.	.	8A\	pec-	8g\	qui	8ee\	qui	.	.
.	.	.	.	.	16gg\JJ	.	.	.	.	.	.	.	.	.	.	.
=38	=38	=38	=38	=38	=38	=38	=38	=38	=38	=38	=38	=38	=38	=38	=38	=38
4D\	.	.	8a/L	.	16gg\LL	.	4d\	-lis	4A\	-ca-	4f#\	tol-	4dd\	tol-	4r	4r
.	.	.	.	.	16ff#\J	.	.	.	.	.	.	.	.	.	.	.
.	.	.	8a/	.	8ff#\J	.	.	.	.	.	.	.	.	.	.	.
4F#\	6	.	8a/	.	16r	.	4F#\	pec-	8A\	-ta	8f#\	-lis	8dd\	-lis	4dd\	4aa\
*	*	*	*	*	*	*	*	*	*	*ij	*	*Xij	*	*Xij	*	*
.	.	.	.	.	16cc#\LL	.	.	.	.	.	.	.	.	.	.	.
.	.	.	8a/J	.	16ff#\	.	.	.	8A\	pec-	8a\	pec-	8dd\	pec-	.	.
.	.	.	.	.	16aa\JJ	.	.	.	.	.	.	.	.	.	.	.
=39	=39	=39	=39	=39	=39	=39	=39	=39	=39	=39	=39	=39	=39	=39	=39	=39
8G\L	6_	.	8ee\L	.	16aa\LL	.	4.G\	-ca-	4B\	-ca-	4.g\	-ca-	4.ee\	-ca-	4ee\	4gg\
.	.	.	.	.	16gg\	.	.	.	.	.	.	.	.	.	.	.
8G\	.	.	16gg\L	.	16bb\	.	.	.	.	.	.	.	.	.	.	.
.	.	.	16ff#\JJ	.	16aa\JJ	.	.	.	.	.	.	.	.	.	.	.
!	!	!	!	!	!LO:LB:g=original	!	!	!	!	!	!	!	!	!	!	!
8G\	.	.	16ff#\LL	.	16aa\LL	.	.	.	4B\	-ta	.	.	.	.	8ee\L	8gg\L
*	*	*	*	*	*	*	*	*	*	*Xij	*	*	*	*	*	*
.	.	.	16ee\	.	16gg\	.	.	.	.	.	.	.	.	.	.	.
8G#X\J	5	.	16ee\	.	16gg\	.	8G#X\	-ta	.	.	8f#\	-ta	8dd\	-ta	8dd\J	8ff#\J
.	.	.	16dd\JJ	.	16ff#\JJ	.	.	.	.	.	.	.	.	.	.	.
!	!	!	!	!	!	!	!	!	!	!	!	!	!	!	!	!LO:LB:g=original
=40	=40	=40	=40	=40	=40	=40	=40	=40	=40	=40	=40	=40	=40	=40	=40	=40
!LO:TX:t=P:problem=mixed beam	!	!	!	!	!	!	!	!	!	!	!	!	!	!	!	!
8A\L	4	.	8dd\L	.	8ff#\L	.	8A\	mun-	8A\	mun-	8f#\	mun-	8dd\	mun-	8dd\L	8ff#\L
8AA/J	3	.	8cc#\J	.	8ee\J	.	8AA/	-di	8A\	-di	8e\	-di	8cc#\	-di	8a\J	8ee\J
!	!	!	!	!	!	!	!	!	!	!	!LO:LB:g=original	!	!	!	!	!
4r	.	.	4r	.	16aa\LL	.	4r	.	4r	.	4a\	qui	4r	.	4r	4r
.	.	.	.	.	16aa\	.	.	.	.	.	.	.	.	.	.	.
.	.	.	.	.	16aa\	.	.	.	.	.	.	.	.	.	.	.
.	.	.	.	.	16aa\JJ	.	.	.	.	.	.	.	.	.	.	.
!LO:LB:g=original	!	!	!	!	!	!	!	!	!	!	!	!	!LO:LB:g=original	!	!LO:LB:g=original	!
=41	=41	=41	=41	=41	=41	=41	=41	=41	=41	=41	=41	=41	=41	=41	=41	=41
*	*	*	*	*	*tremolo	*	*	*	*	*	*	*	*	*	*	*
8Gn\L	4 2	.	8cc#\L	.	16aa\LL	.	8Gn\L	qui	8e\L	qui	2a\	tol-	8cc#\L	qui	2a/	2aa\
.	.	.	.	.	16aa\	.	.	.	.	.	.	.	.	.	.	.
8F#\	6	.	8dd\	.	16aa\	.	8F#\J	.	8d\J	.	.	.	8dd\J	.	.	.
.	.	.	.	.	16aa\JJ	.	.	.	.	.	.	.	.	.	.	.
8C#\	6 5	.	8gg\	.	16aa\LL	.	8C#\L	tol-	8e\L	tol-	.	.	8gg\L	tol-	.	.
.	.	.	.	.	16aa\	.	.	.	.	.	.	.	.	.	.	.
8D\J	.	.	8ff#\J	.	16aa\	.	8D\J	.	8d\J	.	.	.	8ff#\J	.	.	.
.	.	.	.	.	16aa\JJ	.	.	.	.	.	.	.	.	.	.	.
!	!	!	!LO:LB:g=original	!	!	!	!	!	!LO:LB:g=original	!	!	!	!	!	!	!
=42	=42	=42	=42	=42	=42	=42	=42	=42	=42	=42	=42	=42	=42	=42	=42	=42
8G\L	4 2	.	8cc#\L	.	16aa\LL	.	8G\L	-lis	8e\L	-lis	4a\	-lis	8cc#\L	-lis	2a/	2aa\
.	.	.	.	.	16aa\	.	.	.	.	.	.	.	.	.	.	.
8F#\	6	.	8dd\	.	16aa\	.	8F#\J	.	8d\J	.	.	.	8dd\J	.	.	.
.	.	.	.	.	16aa\JJ	.	.	.	.	.	.	.	.	.	.	.
!	!	!	!	!	!	!	!LO:LB:g=original	!	!	!	!	!	!	!	!	!
8C#\	6 5	.	8gg\	.	16aa\LL	.	8C#/L	pec-	8e\L	pec-	4a\	pec-	8gg\L	pec-	.	.
.	.	.	.	.	16aa\	.	.	.	.	.	.	.	.	.	.	.
8D\J	.	.	8ff#\J	.	16aa\	.	8D/J	.	8d\J	.	.	.	8ff#\J	.	.	.
.	.	.	.	.	16aa\JJ	.	.	.	.	.	.	.	.	.	.	.
=43	=43	=43	=43	=43	=43	=43	=43	=43	=43	=43	=43	=43	=43	=43	=43	=43
2BB/	7	.	8dd\L	.	16aa\LL	.	8B\	-ca-	8f#\	-ca-	8a\	-ca-	8dd\	-ca-	4ff#\	4aa\
.	.	.	.	.	16aa\	.	.	.	.	.	.	.	.	.	.	.
.	.	.	8dd\	.	16aa\	.	8B\	-ta	8f#\	-ta	8a\	-ta	8dd\	-ta	.	.
.	.	.	.	.	16aa\JJ	.	.	.	.	.	.	.	.	.	.	.
.	6\	.	8dd\	.	16gg#X\LL	.	4B\	mun-	4e\	mun-	4g#X\	mun-	4dd\	mun-	4ee\	4gg#X\
.	.	.	.	.	16gg#\	.	.	.	.	.	.	.	.	.	.	.
.	.	.	8dd\J	.	16gg#\	.	.	.	.	.	.	.	.	.	.	.
.	.	.	.	.	16gg#\JJ	.	.	.	.	.	.	.	.	.	.	.
*	*	*	*	*	*Xtremolo	*	*	*	*	*	*	*	*	*	*	*
=44	=44	=44	=44	=44	=44	=44	=44	=44	=44	=44	=44	=44	=44	=44	=44	=44
4AA/	.	.	4cc#\	.	4aa\	.	4A\	-di	4e\	-di	4a\	-di	4cc#\	-di	4a/	4aa\
4r	.	.	4r	.	4r	.	4r	.	4r	.	4r	.	4r	.	4r	4r
==	==	==	==	==	==	==	==	==	==	==	==	==	==	==	==	==
*-	*-	*-	*-	*-	*-	*-	*-	*-	*-	*-	*-	*-	*-	*-	*-	*-
!!!system-decoration: [(g1)][(g2)][(g3)]<s9>
!!!RDF**kern: > = above
!!!RDF**kern: < = below
!!!RDF**kern: | = vertical stroke
!!!RDF**dynam: p = "p:", fontstyle="bold-italic"
!!!RDF**dynam: f = "f:", fontstyle="bold-italic"
!!!ENC: Marta Chmielewska
!!!END: 2020-07-07
!!!ENC: Andrzej Kubiczek
!!!END: 2021-11-21
!!!YEC: Copyright 2022 Narodowy Instytut Fryderyka Chopina (https://polishscores.org)
!!!YEM: License CC-BY-4.0 (https://creativecommons.org/licenses/by/4.0)
